X:1
T:Title
%%score { ( 1 2 ) | ( 3 4 ) }
L:1/8
Q:1/4=100
M:6/8
K:C
V:1 treble nm="Grand Piano"
V:2 treble 
V:3 bass 
V:4 bass 
V:1
 G3 A3 | G3 c3 | .c3 .A3 | c6 | G3 A3 | G3 e3 | .d3 .e3 | d3 .G3 | G3 A3 | G3 c3 | .c3 .A3 | c6 | %12
w: C.~D.~Emerson *||||||||||||
 A3 A3 | A3 c3 | .B3 .B3 | G6 | G3 c3 | e3 c3 | z3 .c3 | B6 | A3 B3 | A3 B3 | AAB AGF | E6 | %24
w: ||||||||||||
 G-[EG-][EG] c-[Ec-][Ec] | .G3 c3 | e2 e ef[Ge] | d3 z3 | c3 .B3 | G3 e3 | ddA B2 G | c6 |] %32
w: ||||||||
V:2
 z G,E z A,_E | z G,E z G,E | z G,B z G,B | x6 | z G,E z A,_E | z G,E z G,E | z G,d z ^F,d | x6 | %8
 z G,E z A,_E | z G,E z G,E | z G,B z G,B | x6 | z CC z ^CC | z DD z DD | z B,c z ^F,A | x6 | %16
 EEE EEE | GGG E[G,E][G,E] | .[CEG]2 [CEB] E-[Ed][Ec] | F2 F .F3 | z FF z FF | z FF z FF | x6 | %23
 z2 C .C3 | .E3 .E3 | e-[Ge-][Ge] EEE | x6 | F2 F .[FA]3 | z _EE z EA | z EE z GG | x6 | %31
 E2 F .E3 |] %32
V:3
 z2 C z2 C | z2 C z2 C | z2 [B,F] z2 [B,F] | C,G,C ECG, | z2 C z2 C | z2 C z2 _B, | %6
 z2 [B,D] z2 [CD] | [G,B,]A,G, F,E,D, | z2 C z2 C | z2 C z2 C | z2 [B,F] z2 [B,F] | C,G,C ECG, | %12
 z A,A, z [G,A,][G,A,] | z [F,A,][F,A,] z [A,C][A,C] | z2 D z2 C | [G,B,]A,G, F,E,D, | %16
 [C,C][C,C][C,C] [C,G,][C,G,][C,G,] | [C,C][C,C][C,C] [C,G,]C,C, | z AC, [C,G,]2 [C,G,] | %19
 [D,G,]2 [D,G,] .[D,G,]3 | [G,B,F][G,B,][G,B,] [G,DF][G,D][G,D] | %21
 [G,B,F][G,B,][G,B,] [G,DF][G,D][G,D] | [G,B,F]2 [G,B,F] FE[K:bass][G,D] | %23
 [C,F,C]2 [C,G,] .[C,G,]3 | [C,C][C,C][C,C] [C,G,][C,G,][C,G,] | %25
 [C,C][C,C][C,C] [C,G,][C,G,][C,G,] | [A,,^CG]2 [A,,CG] [A,,CG]2 [^C,A,] | [D,A,]2 [D,A,] .[D,D]3 | %28
 [F,A,_E][F,A,][F,A,] [F,A,E][F,A,][F,CE] | [G,CE][G,C][G,C] [G,CG][G,C][G,C] | %30
 [A,C^F]2 [A,CF] [G,D=F]2 [G,DF] | [C,C]2 [C,A,] .[C,G,]3 |] %32
V:4
 C,3 C,3 | C,3 E,3 | D,3 G,,3 | x6 | C,3 C,3 | C,3 ^C,3 | D,3 D,3 | x6 | B,,3 C,3 | C,3 E,3 | %10
 D,3 G,,3 | x6 | F,3 E,3 | D,3 ^F,3 | G,3 D,3 | x6 | x6 | x6 | .C,3 z3 | x6 | x6 | x6 | %22
 z3 .[G,B,]3[K:bass] | x6 | x6 | x6 | x6 | x6 | x6 | x6 | x6 | x6 |] %32

